X: 1
T: Lottie's
M: 4/4
L: 1/8
R: reel
K: Gdor
|:d2d2 cdec|dedc A2A2|f2d2 defg|afdf e2c2|
d2g2 aede|efge c2de|fdBf dcBA|G2G2 G4:|
|:gagf defd|c2c2 ABc/B/A|B2B2 FGAF|GABc defd|
gagf defd|c2c2 Bcde|fdbf dcba|G2G2 G4:|
